X: 405
T: Ladies Conveniency
P: Longways for as many as will
%R: jig
B: "The Dancing-Master: Containing Directions and Tunes for Dancing" printed by W. Pearson for John Walsh, London ca. 1709
S: 7: DMDfD http://digital.nls.uk/special-collections-of-printed-music/pageturner.cfm?id=89751228 p.310
Z: 2013 John Chambers <jc:trillian.mit.edu>
N: There is no time signature in this tune.
M: 6/4
L: 1/4
K: A
% - - - - - - - - - - - - - - - - - - - - - - - - -
[|\
A2a edc |  B2b  fga | g>fe acd | B>AG A3 |][|\
B2c def | =g2B ^A2F | fed  cdB | B2^A B3 |]
% - - - - - - - - - - - - - - - - - - - - - - - - -
%%begintext align
%% The 1. man cast off and slip up the middle, his Partner goes between the 2. man and 2. wo. and cast up .|
%% The 1. man cast up and his Partner slip up the middle and cast off .| The 2. men and 2. we. lead to the
%% wall, then right and left .| Then all four hands a-breast, and single Figure, then turn :|
%% [DMDfD]
%%endtext
%%sep 1 8 500

%%sep 1 1 500
%%sep 1 1 500
